packages/base/core/src/svg/system/bell.svg

<?xml version="1.0" encoding="UTF-8"?>
<svg width="24px" height="24px" viewBox="0 0 24 24" version="1.1" xmlns="http://www.w3.org/2000/svg" xmlns:xlink="http://www.w3.org/1999/xlink">
    <!-- Generator: Sketch 54.1 (76490) - https://sketchapp.com -->
    <title>Icons/System/bell</title>
    <desc>Created with Sketch.</desc>
    <g id="Icons/System/bell" stroke="none" stroke-width="1" fill="none" fill-rule="evenodd">
        <path d="M15.0986534,19 C14.5799393,19.8967021 13.6104235,20.5 12.5,20.5 C11.3895765,20.5 10.4200607,19.8967021 9.90134659,19 L4,19 C2.94477557,19 2.60896499,17.5774835 3.5527864,17.1055728 C4.51205717,16.6259374 5,15.6500518 5,14 L5,9 C5,5.13400675 8.13400675,2 12,2 C15.8659932,2 19,5.13400675 19,9 L19,14 C19,15.6500518 19.4879428,16.6259374 20.4472136,17.1055728 C21.391035,17.5774835 21.0552244,19 20,19 L15.0986534,19 Z M17,14 L17,9 C17,6.23857625 14.7614237,4 12,4 C9.23857625,4 7,6.23857625 7,9 L7,14 C7,15.1710244 6.79007089,16.1783631 6.36815667,17 L17.6318433,17 C17.2099291,16.1783631 17,15.1710244 17,14 Z" id="Color" fill="#2859C0"></path>
    </g>
</svg>

<svg xmlns="http://www.w3.org/2000/svg" width="24" height="24" viewBox="0 0 24 24">
    <path fill="#0050D7" fill-rule="evenodd" d="M12 2a7 7 0 0 1 7 7v5c0 1.65.488 2.626 1.447 3.106.944.471.608 1.894-.447 1.894h-4.902a2.999 2.999 0 0 1-5.196 0H4c-1.055 0-1.391-1.423-.447-1.894C4.513 16.626 5 15.65 5 14V9a7 7 0 0 1 7-7zm0 2a5 5 0 0 0-5 5v5c0 1.171-.21 2.178-.632 3h11.264c-.422-.822-.632-1.829-.632-3V9a5 5 0 0 0-5-5z"/>
</svg>
